X:79
T:L'Ase
M:2/4
L:1/8
N:Assez vite
N:La Bourre 4th edition 1929, page 79
Z:Steve Mansfield www.lesession.co.uk April 2012
K:Am
E | A > B c B | c-B2 E | A > B c B | c-B2 G |
A > B c B | d c2 B | (A G2) E | A > B c A | B !fermata! A3 |]
<end>
<start>
